svgs/duotone/franc-sign.svg

<svg xmlns="http://www.w3.org/2000/svg" viewBox="0 0 320 512"><!--! Font Awesome Pro 6.6.0 by @fontawesome - https://fontawesome.com License - https://fontawesome.com/license (Commercial License) Copyright 2024 Fonticons, Inc. --><defs><style>.fa-secondary{opacity:.4}</style></defs><path class="fa-secondary" d="M0 352c0 17.7 14.3 32 32 32l16 0 0-64-16 0c-17.7 0-32 14.3-32 32zm112-32l0 64 80 0c17.7 0 32-14.3 32-32s-14.3-32-32-32l-80 0z"/><path class="fa-primary" d="M80 32C62.3 32 48 46.3 48 64l0 160 0 224c0 17.7 14.3 32 32 32s32-14.3 32-32l0-192 144 0c17.7 0 32-14.3 32-32s-14.3-32-32-32l-144 0 0-96 176 0c17.7 0 32-14.3 32-32s-14.3-32-32-32L80 32z"/></svg>

<svg xmlns="http://www.w3.org/2000/svg" viewBox="0 0 320 512"><!--! Font Awesome Pro 6.5.2 by @fontawesome - https://fontawesome.com License - https://fontawesome.com/license (Commercial License) Copyright 2024 Fonticons, Inc. --><defs><style>.fa-secondary{opacity:.4}</style></defs><path class="fa-secondary" d="M48 320H32c-17.7 0-32 14.3-32 32s14.3 32 32 32H48V320zm64 64h80c17.7 0 32-14.3 32-32s-14.3-32-32-32H112v64z"/><path class="fa-primary" d="M80 32C62.3 32 48 46.3 48 64V224 448c0 17.7 14.3 32 32 32s32-14.3 32-32V256H256c17.7 0 32-14.3 32-32s-14.3-32-32-32H112V96H288c17.7 0 32-14.3 32-32s-14.3-32-32-32H80z"/></svg>
